Costumes/P-story-3.svg

<?xml version="1.0" encoding="utf-8"?>
<!-- Generator: Adobe Illustrator 18.0.0, SVG Export Plug-In . SVG Version: 6.00 Build 0)  -->
<!DOCTYPE svg PUBLIC "-//W3C//DTD SVG 1.1//EN" "http://www.w3.org/Graphics/SVG/1.1/DTD/svg11.dtd">
<svg version="1.1" id="Layer_2" xmlns="http://www.w3.org/2000/svg" xmlns:xlink="http://www.w3.org/1999/xlink" x="0px" y="0px"
	 viewBox="0 0 35.8 48" enable-background="new 0 0 35.8 48" xml:space="preserve">
<g>
	<path fill="#41A2F2" d="M35.2,17.7c-1.2,3-2.8,5.5-5.6,7.4c-2.6,1.8-5.5,2.2-8.5,2.5c-2.1,0.2-4.1-0.1-6.2-0.1
		c-0.6,0-0.8-0.3-0.8-0.9c0-0.4-0.1-0.8-0.2-1.3c0.6-0.1,1.3-0.2,2-0.2c2.7-0.1,5.3-0.7,7.8-1.6c2.6-1,4.6-2.7,5.4-5.6
		c0.9-3,0.9-6-0.4-8.9c-0.8-1.9-2.1-3.5-4.1-4.4c-1.1-0.5-2.2-1-3.3-1.5c-0.2-0.1-0.5-0.1-0.7-0.1c-2.6,0-5.2-0.2-7.8,0.5
		c-1,0.2-1.2,0.5-1.4,1.4c-0.6,2.1,0,4.2-0.1,6.4c-0.2,4.6-0.3,9.2-0.6,13.8c-0.2,3.7,0,7.5,0.3,11.2c0.2,2.4,0.3,4.8,0.4,7.2
		c0,0.8,0.3,1.3,1.1,1.4c0.5,0.1,1.1,0.3,1.6,0.4c0.5,0.1,0.7,0.3,0.7,0.9c0,0.1,0,0.2,0,0.3C14.9,48,14.9,48,13.5,48
		c-3.9,0-7.8-0.1-11.8-0.2c-1.2,0-1.8-1-1.2-2c0.1-0.2,0.5-0.4,0.8-0.5c0.5-0.1,0.9,0,1.4,0c0.9,0,1.4-0.4,1.5-1.3
		c0.1-0.7,0-1.5,0-2.2c-0.1-2.8-0.3-5.5-0.2-8.3c0.1-4,0.5-7.9,0.6-11.9c0.1-2-0.1-3.9-0.2-5.9C4.3,13.8,4.1,11.8,4,9.9
		C4,8.5,4.2,7,4.2,5.6c0-0.7-0.3-1.5-0.5-2.1C3.6,3.2,3.2,3,2.9,3C2.1,2.8,1.3,2.8,0.5,2.7c-0.1,0-0.3,0-0.3-0.1C0.1,2,0,1.4,0,0.8
		c0-0.2,0.4-0.5,0.7-0.5c3.8-0.3,7.6-0.3,11.4-0.2C15.1,0.2,18,0.2,21,0c2.7-0.1,5.2,0.4,7.5,1.6c2,1,3.8,2.6,4.9,4.4
		c1.2,1.8,2.1,4,2.3,6.3C35.8,14.2,35.9,16,35.2,17.7z"/>
</g>
</svg>

<?xml version="1.0" encoding="UTF-8" standalone="no"?>
<!-- Generator: Adobe Illustrator 18.0.0, SVG Export Plug-In . SVG Version: 6.00 Build 0)  -->

<svg
   version="1.1"
   id="Layer_2"
   x="0px"
   y="0px"
   viewBox="0 0 35.770711 48.012444"
   enable-background="new 0 0 35.8 48"
   xml:space="preserve"
   sodipodi:docname="P-story-3.svg"
   width="35.77071"
   height="48.012444"
   xmlns:inkscape="http://www.inkscape.org/namespaces/inkscape"
   xmlns:sodipodi="http://sodipodi.sourceforge.net/DTD/sodipodi-0.dtd"
   xmlns="http://www.w3.org/2000/svg"
   xmlns:svg="http://www.w3.org/2000/svg"><defs
   id="defs9" /><sodipodi:namedview
   id="namedview7"
   pagecolor="#ffffff"
   bordercolor="#000000"
   borderopacity="0.25"
   inkscape:showpageshadow="2"
   inkscape:pageopacity="0.0"
   inkscape:pagecheckerboard="0"
   inkscape:deskcolor="#d1d1d1" />
<g
   id="g4"
   transform="translate(0,0.01244272)">
	<path
   fill="#41a2f2"
   d="m 35.2,17.7 c -1.2,3 -2.8,5.5 -5.6,7.4 -2.6,1.8 -5.5,2.2 -8.5,2.5 -2.1,0.2 -4.1,-0.1 -6.2,-0.1 -0.6,0 -0.8,-0.3 -0.8,-0.9 0,-0.4 -0.1,-0.8 -0.2,-1.3 0.6,-0.1 1.3,-0.2 2,-0.2 2.7,-0.1 5.3,-0.7 7.8,-1.6 2.6,-1 4.6,-2.7 5.4,-5.6 C 30,14.9 30,11.9 28.7,9 27.9,7.1 26.6,5.5 24.6,4.6 23.5,4.1 22.4,3.6 21.3,3.1 21.1,3 20.8,3 20.6,3 18,3 15.4,2.8 12.8,3.5 c -1,0.2 -1.2,0.5 -1.4,1.4 -0.6,2.1 0,4.2 -0.1,6.4 -0.2,4.6 -0.3,9.2 -0.6,13.8 -0.2,3.7 0,7.5 0.3,11.2 0.2,2.4 0.3,4.8 0.4,7.2 0,0.8 0.3,1.3 1.1,1.4 0.5,0.1 1.1,0.3 1.6,0.4 0.5,0.1 0.7,0.3 0.7,0.9 0,0.1 0,0.2 0,0.3 0.1,1.5 0.1,1.5 -1.3,1.5 -3.9,0 -7.8,-0.1 -11.8,-0.2 -1.2,0 -1.8,-1 -1.2,-2 0.1,-0.2 0.5,-0.4 0.8,-0.5 0.5,-0.1 0.9,0 1.4,0 0.9,0 1.4,-0.4 1.5,-1.3 0.1,-0.7 0,-1.5 0,-2.2 C 4.1,39 3.9,36.3 4,33.5 4.1,29.5 4.5,25.6 4.6,21.6 4.7,19.6 4.5,17.7 4.4,15.7 4.3,13.8 4.1,11.8 4,9.9 4,8.5 4.2,7 4.2,5.6 4.2,4.9 3.9,4.1 3.7,3.5 3.6,3.2 3.2,3 2.9,3 2.1,2.8 1.3,2.8 0.5,2.7 0.4,2.7 0.2,2.7 0.2,2.6 0.1,2 0,1.4 0,0.8 0,0.6 0.4,0.3 0.7,0.3 4.5,0 8.3,0 12.1,0.1 15.1,0.2 18,0.2 21,0 c 2.7,-0.1 5.2,0.4 7.5,1.6 2,1 3.8,2.6 4.9,4.4 1.2,1.8 2.1,4 2.3,6.3 0.1,1.9 0.2,3.7 -0.5,5.4 z"
   id="path2" />
</g>
</svg>
